Newaita-dark/apps/48/kpat.svg

<svg height="48pt" viewBox="0 0 48 48" width="48pt" xmlns="http://www.w3.org/2000/svg" xmlns:xlink="http://www.w3.org/1999/xlink"><linearGradient id="a" gradientUnits="userSpaceOnUse" x1="23.81478" x2="23.81478" y1="42.0509045" y2="44.03547050005"><stop offset="0" stop-opacity=".27451"/><stop offset="1" stop-opacity="0"/></linearGradient><linearGradient id="b"><stop offset="0" stop-opacity=".313725"/><stop offset=".222222" stop-opacity=".27451"/><stop offset="1" stop-opacity="0"/></linearGradient><radialGradient id="c" cx="450.908936" cy="189.579361" gradientTransform="matrix(.00000026 -.117199 -.210958 -.00000015 75.219126 95.392999)" gradientUnits="userSpaceOnUse" r="21.166656" xlink:href="#b"/><radialGradient id="d" cx="450.908936" cy="189.579361" gradientTransform="matrix(-.00000026 .117199 .210958 .00000015 -27.589573 -11.291218)" gradientUnits="userSpaceOnUse" r="21.166656" xlink:href="#b"/><radialGradient id="e" cx="450.908936" cy="189.579361" gradientTransform="matrix(-.00000026 -.117199 .210958 -.00000015 -27.589573 95.392999)" gradientUnits="userSpaceOnUse" r="21.166656" xlink:href="#b"/><radialGradient id="f" cx="450.908936" cy="189.579361" gradientTransform="matrix(.00000026 .117199 -.210958 .00000015 75.219123 -11.291219)" gradientUnits="userSpaceOnUse" r="21.166656" xlink:href="#b"/><linearGradient id="g" gradientUnits="userSpaceOnUse" x1="19.8456562499" x2="19.8456562499" y1="42.0509015" y2="4.3441580001"><stop offset="0" stop-color="#e0e0e0"/><stop offset="1" stop-color="#f5f5f5"/></linearGradient><linearGradient id="h"><stop offset="0" stop-color="#ef5350"/><stop offset="1" stop-color="#f44336"/></linearGradient><linearGradient id="i" gradientUnits="userSpaceOnUse" x1="254.000012" x2="254.000012" xlink:href="#h" y1="-31.083334" y2="95.916664"/><linearGradient id="j" gradientTransform="matrix(.235294 0 0 -.235294 98.361969 192.568695)" gradientUnits="userSpaceOnUse" x1="211.666672" x2="211.666672" xlink:href="#h" y1="-31.083334" y2="95.916664"/><linearGradient id="k" gradientUnits="userSpaceOnUse" x1="1400.00012301837" x2="1400.00012301837" xlink:href="#h" y1="455.11802225459" y2="255.118009"/><path d="m11.90625 42.308594h23.816406v1.453125h-23.816406zm0 0" fill="url(#a)"/><path d="m35.722656 42.050781h3.96875v-1.984375h-3.96875zm0 0" fill="url(#c)"/><path d="m11.90625 42.050781h-3.96875v1.984375h3.96875zm0 0" fill="url(#d)"/><path d="m11.90625 42.050781h-3.96875v-1.984375h3.96875zm0 0" fill="url(#e)"/><path d="m35.722656 42.050781h3.96875v1.984375h-3.96875zm0 0" fill="url(#f)"/><path d="m10.914062 4.34375h25.800782c1.09375 0 1.984375.890625 1.984375 1.984375v33.738281c0 1.097656-.890625 1.984375-1.984375 1.984375h-25.800782c-1.09375 0-1.984374-.886719-1.984374-1.984375v-33.738281c0-1.09375.890624-1.984375 1.984374-1.984375zm0 0" fill="url(#g)"/><path d="m10.914062 4.34375c-1.097656 0-1.984374.886719-1.984374 1.984375v.496094c0-1.097657.886718-1.984375 1.984374-1.984375h25.800782c1.097656 0 1.984375.886718 1.984375 1.984375v-.496094c0-1.097656-.886719-1.984375-1.984375-1.984375zm0 0" fill="#fff" fill-opacity=".392157"/><path d="m10.914062 42.050781c-1.097656 0-1.984374-.886719-1.984374-1.984375v-.496094c0 1.097657.886718 1.984376 1.984374 1.984376h25.800782c1.097656 0 1.984375-.886719 1.984375-1.984376v.496094c0 1.097656-.886719 1.984375-1.984375 1.984375zm0 0" fill-opacity=".235294"/><path d="m10.914062 4.203125c-1.171874 0-2.125.949219-2.125 2.125v33.738281c0 1.175782.953126 2.125 2.125 2.125h25.800782c1.175781 0 2.125-.949218 2.125-2.125v-33.738281c0-1.175781-.949219-2.125-2.125-2.125zm0 .28125h25.800782c1.023437 0 1.84375.820313 1.84375 1.84375v33.738281c0 1.023438-.820313 1.84375-1.84375 1.84375h-25.800782c-1.023437 0-1.84375-.820312-1.84375-1.84375v-33.738281c0-1.023437.820313-1.84375 1.84375-1.84375zm0 0" fill="#212121"/><g stroke="#212121" stroke-linecap="round" stroke-linejoin="round"><path d="m216.937617-31.100895c-20.498043 0-37.03813 16.540087-37.03813 37.079793 0 .291638.041663.583277.041663.874916v.249976c0 .249976 0 .499952.041663.749929v.041662c1.791495 36.204876 53.203252 67.243579 74.034596 88.03326 20.789682-20.789681 72.243101-51.828384 74.034597-88.03326v-.041662c0-.249977 0-.499953 0-.749929 0-.083325 0-.166651 0-.249976.041663-.291639.041663-.583278.041663-.874916 0-20.539706-16.540088-37.079793-37.03813-37.079793-20.539705 0-37.03813 16.540087-37.03813 37.079793 0-20.539706-16.540087-37.079793-37.079792-37.079793zm0 0" fill="url(#i)" stroke-width="3" transform="matrix(.093759 0 0 .093759 0 20.158175)"/><path d="m139.445017 199.877048c-4.832872 0-8.707502-3.87463-8.707502-8.707502 0-.083325 0-.166651 0-.208313 0-.041663 0-.041663 0-.083326 0-.041662 0-.083325 0-.16665.416627-8.540852 12.540469-15.831822 17.415004-20.706356 4.916197 4.874534 16.998377 12.165504 17.415003 20.706356.041663.083325.041663.124988.041663.16665v.083326.208313c0 4.832872-3.916293 8.707502-8.707502 8.707502-4.832872 0-8.749164-3.87463-8.749164-8.707502 0 4.832872-3.87463 8.707502-8.707502 8.707502zm0 0" fill="url(#j)" stroke-width="3" transform="matrix(.093759 0 0 .093759 0 20.158175)"/><path d="m1380.025767 255.093763c-33.225175 0-59.994274 31.178127-59.994274 70.072053v99.990456c0 11.02257 8.818056 19.998092 19.998091 19.998092 11.02257 0 19.998092-8.975522 19.998092-19.998092v-50.073961h79.992365v50.073961c0 11.02257 8.975521 19.998092 19.998091 19.998092s19.998092-8.975522 19.998092-19.998092v-99.990456c0-38.893926-26.769099-70.072053-59.994274-70.072053zm0 39.996183h39.996183c11.02257 0 19.998091 13.384549 19.998091 30.07587v19.998091h-79.992365v-19.998091c0-16.691321 8.818056-30.07587 19.998091-30.07587zm0 0" fill="url(#k)" stroke-width="11.338583" transform="scale(.0248071)"/></g></svg>

<?xml version="1.0" encoding="UTF-8"?>
<svg xmlns="http://www.w3.org/2000/svg" xmlns:xlink="http://www.w3.org/1999/xlink" width="48pt" height="48pt" viewBox="0 0 48 48" version="1.1">
<defs>
<linearGradient id="linear0" gradientUnits="userSpaceOnUse" x1="254" y1="233.5" x2="254" y2="254.666672" gradientTransform="matrix(0.093759,0,0,0.093759,-0.00000572259,20.158178)">
<stop offset="0" style="stop-color:rgb(0%,0%,0%);stop-opacity:0.27451;"/>
<stop offset="1" style="stop-color:rgb(0%,0%,0%);stop-opacity:0;"/>
</linearGradient>
<radialGradient id="radial0" gradientUnits="userSpaceOnUse" cx="450.908936" cy="189.579361" fx="450.908936" fy="189.579361" r="21.166656" gradientTransform="matrix(0.000000261256,-0.117199,-0.210958,-0.000000152308,75.219126,95.392999)">
<stop offset="0" style="stop-color:rgb(0%,0%,0%);stop-opacity:0.313725;"/>
<stop offset="0.222222" style="stop-color:rgb(0%,0%,0%);stop-opacity:0.27451;"/>
<stop offset="1" style="stop-color:rgb(0%,0%,0%);stop-opacity:0;"/>
</radialGradient>
<radialGradient id="radial1" gradientUnits="userSpaceOnUse" cx="450.908936" cy="189.579361" fx="450.908936" fy="189.579361" r="21.166656" gradientTransform="matrix(-0.000000261256,0.117199,0.210958,0.000000152308,-27.589573,-11.291218)">
<stop offset="0" style="stop-color:rgb(0%,0%,0%);stop-opacity:0.313725;"/>
<stop offset="0.222222" style="stop-color:rgb(0%,0%,0%);stop-opacity:0.27451;"/>
<stop offset="1" style="stop-color:rgb(0%,0%,0%);stop-opacity:0;"/>
</radialGradient>
<radialGradient id="radial2" gradientUnits="userSpaceOnUse" cx="450.908936" cy="189.579361" fx="450.908936" fy="189.579361" r="21.166656" gradientTransform="matrix(-0.000000261256,-0.117199,0.210958,-0.000000152308,-27.589573,95.392999)">
<stop offset="0" style="stop-color:rgb(0%,0%,0%);stop-opacity:0.313725;"/>
<stop offset="0.222222" style="stop-color:rgb(0%,0%,0%);stop-opacity:0.27451;"/>
<stop offset="1" style="stop-color:rgb(0%,0%,0%);stop-opacity:0;"/>
</radialGradient>
<radialGradient id="radial3" gradientUnits="userSpaceOnUse" cx="450.908936" cy="189.579361" fx="450.908936" fy="189.579361" r="21.166656" gradientTransform="matrix(0.000000261256,0.117199,-0.210958,0.000000152308,75.219123,-11.291219)">
<stop offset="0" style="stop-color:rgb(0%,0%,0%);stop-opacity:0.313725;"/>
<stop offset="0.222222" style="stop-color:rgb(0%,0%,0%);stop-opacity:0.27451;"/>
<stop offset="1" style="stop-color:rgb(0%,0%,0%);stop-opacity:0;"/>
</radialGradient>
<linearGradient id="linear1" gradientUnits="userSpaceOnUse" x1="243.416656" y1="233.5" x2="243.416656" y2="-168.666656" gradientTransform="matrix(0.093759,0,0,0.093759,-2.976846,20.158175)">
<stop offset="0" style="stop-color:rgb(87.843137%,87.843137%,87.843137%);stop-opacity:1;"/>
<stop offset="1" style="stop-color:rgb(96.078431%,96.078431%,96.078431%);stop-opacity:1;"/>
</linearGradient>
<linearGradient id="linear2" gradientUnits="userSpaceOnUse" x1="211.666672" y1="-31.083334" x2="211.666672" y2="95.916664" gradientTransform="matrix(1,0,0,1,42.33334,0)">
<stop offset="0" style="stop-color:rgb(93.72549%,32.54902%,31.372549%);stop-opacity:1;"/>
<stop offset="1" style="stop-color:rgb(95.686275%,26.27451%,21.176471%);stop-opacity:1;"/>
</linearGradient>
<linearGradient id="linear3" gradientUnits="userSpaceOnUse" x1="211.666672" y1="-31.083334" x2="211.666672" y2="95.916664" gradientTransform="matrix(0.235294,0,0,-0.235294,98.361969,192.568695)">
<stop offset="0" style="stop-color:rgb(93.72549%,32.54902%,31.372549%);stop-opacity:1;"/>
<stop offset="1" style="stop-color:rgb(95.686275%,26.27451%,21.176471%);stop-opacity:1;"/>
</linearGradient>
<linearGradient id="linear4" gradientUnits="userSpaceOnUse" x1="370.416656" y1="-94.583336" x2="370.416656" y2="-147.5" gradientTransform="matrix(3.779528,0,0,3.779528,0,812.598389)">
<stop offset="0" style="stop-color:rgb(93.72549%,32.54902%,31.372549%);stop-opacity:1;"/>
<stop offset="1" style="stop-color:rgb(95.686275%,26.27451%,21.176471%);stop-opacity:1;"/>
</linearGradient>
</defs>
<g id="surface1">
<path style=" stroke:none;fill-rule:nonzero;fill:url(#linear0);" d="M 11.90625 42.308594 L 35.722656 42.308594 L 35.722656 43.761719 L 11.90625 43.761719 Z M 11.90625 42.308594 "/>
<path style=" stroke:none;fill-rule:nonzero;fill:url(#radial0);" d="M 35.722656 42.050781 L 39.691406 42.050781 L 39.691406 40.066406 L 35.722656 40.066406 Z M 35.722656 42.050781 "/>
<path style=" stroke:none;fill-rule:nonzero;fill:url(#radial1);" d="M 11.90625 42.050781 L 7.9375 42.050781 L 7.9375 44.035156 L 11.90625 44.035156 Z M 11.90625 42.050781 "/>
<path style=" stroke:none;fill-rule:nonzero;fill:url(#radial2);" d="M 11.90625 42.050781 L 7.9375 42.050781 L 7.9375 40.066406 L 11.90625 40.066406 Z M 11.90625 42.050781 "/>
<path style=" stroke:none;fill-rule:nonzero;fill:url(#radial3);" d="M 35.722656 42.050781 L 39.691406 42.050781 L 39.691406 44.035156 L 35.722656 44.035156 Z M 35.722656 42.050781 "/>
<path style=" stroke:none;fill-rule:nonzero;fill:url(#linear1);" d="M 10.914062 4.34375 L 36.714844 4.34375 C 37.808594 4.34375 38.699219 5.234375 38.699219 6.328125 L 38.699219 40.066406 C 38.699219 41.164062 37.808594 42.050781 36.714844 42.050781 L 10.914062 42.050781 C 9.820312 42.050781 8.929688 41.164062 8.929688 40.066406 L 8.929688 6.328125 C 8.929688 5.234375 9.820312 4.34375 10.914062 4.34375 Z M 10.914062 4.34375 "/>
<path style=" stroke:none;fill-rule:nonzero;fill:rgb(100%,100%,100%);fill-opacity:0.392157;" d="M 10.914062 4.34375 C 9.816406 4.34375 8.929688 5.230469 8.929688 6.328125 L 8.929688 6.824219 C 8.929688 5.726562 9.816406 4.839844 10.914062 4.839844 L 36.714844 4.839844 C 37.8125 4.839844 38.699219 5.726562 38.699219 6.824219 L 38.699219 6.328125 C 38.699219 5.230469 37.8125 4.34375 36.714844 4.34375 Z M 10.914062 4.34375 "/>
<path style=" stroke:none;fill-rule:nonzero;fill:rgb(0%,0%,0%);fill-opacity:0.235294;" d="M 10.914062 42.050781 C 9.816406 42.050781 8.929688 41.164062 8.929688 40.066406 L 8.929688 39.570312 C 8.929688 40.667969 9.816406 41.554688 10.914062 41.554688 L 36.714844 41.554688 C 37.8125 41.554688 38.699219 40.667969 38.699219 39.570312 L 38.699219 40.066406 C 38.699219 41.164062 37.8125 42.050781 36.714844 42.050781 Z M 10.914062 42.050781 "/>
<path style=" stroke:none;fill-rule:nonzero;fill:rgb(12.941177%,12.941177%,12.941177%);fill-opacity:1;" d="M 10.914062 4.203125 C 9.742188 4.203125 8.789062 5.152344 8.789062 6.328125 L 8.789062 40.066406 C 8.789062 41.242188 9.742188 42.191406 10.914062 42.191406 L 36.714844 42.191406 C 37.890625 42.191406 38.839844 41.242188 38.839844 40.066406 L 38.839844 6.328125 C 38.839844 5.152344 37.890625 4.203125 36.714844 4.203125 Z M 10.914062 4.484375 L 36.714844 4.484375 C 37.738281 4.484375 38.558594 5.304688 38.558594 6.328125 L 38.558594 40.066406 C 38.558594 41.089844 37.738281 41.910156 36.714844 41.910156 L 10.914062 41.910156 C 9.890625 41.910156 9.070312 41.089844 9.070312 40.066406 L 9.070312 6.328125 C 9.070312 5.304688 9.890625 4.484375 10.914062 4.484375 Z M 10.914062 4.484375 "/>
<path style="fill-rule:nonzero;fill:url(#linear2);stroke-width:3;stroke-linecap:round;stroke-linejoin:round;stroke:rgb(12.941177%,12.941177%,12.941177%);stroke-opacity:1;stroke-miterlimit:4;" d="M 216.937617 -31.100895 C 196.439574 -31.100895 179.899487 -14.560808 179.899487 5.978898 C 179.899487 6.270536 179.94115 6.562175 179.94115 6.853814 C 179.94115 6.937139 179.94115 7.020465 179.94115 7.10379 C 179.94115 7.353766 179.94115 7.603742 179.982813 7.853719 C 179.982813 7.853719 179.982813 7.895381 179.982813 7.895381 C 181.774308 44.100257 233.186065 75.13896 254.017409 95.928641 C 274.807091 75.13896 326.26051 44.100257 328.052006 7.895381 C 328.052006 7.895381 328.052006 7.853719 328.052006 7.853719 C 328.052006 7.603742 328.052006 7.353766 328.052006 7.10379 C 328.052006 7.020465 328.052006 6.937139 328.052006 6.853814 C 328.093669 6.562175 328.093669 6.270536 328.093669 5.978898 C 328.093669 -14.560808 311.553581 -31.100895 291.055539 -31.100895 C 270.515834 -31.100895 254.017409 -14.560808 254.017409 5.978898 C 254.017409 -14.560808 237.477322 -31.100895 216.937617 -31.100895 Z M 216.937617 -31.100895 " transform="matrix(0.093759,0,0,0.093759,0,20.158175)"/>
<path style="fill-rule:nonzero;fill:url(#linear3);stroke-width:3;stroke-linecap:round;stroke-linejoin:round;stroke:rgb(12.941177%,12.941177%,12.941177%);stroke-opacity:1;stroke-miterlimit:4;" d="M 139.445017 199.877048 C 134.612145 199.877048 130.737515 196.002418 130.737515 191.169546 C 130.737515 191.086221 130.737515 191.002895 130.737515 190.961233 C 130.737515 190.91957 130.737515 190.91957 130.737515 190.877907 C 130.737515 190.836245 130.737515 190.794582 130.737515 190.711257 C 131.154142 182.170405 143.277984 174.879435 148.152519 170.004901 C 153.068716 174.879435 165.150896 182.170405 165.567522 190.711257 C 165.609185 190.794582 165.609185 190.836245 165.609185 190.877907 C 165.609185 190.91957 165.609185 190.91957 165.609185 190.961233 C 165.609185 191.002895 165.609185 191.086221 165.609185 191.169546 C 165.609185 196.002418 161.692892 199.877048 156.901683 199.877048 C 152.068811 199.877048 148.152519 196.002418 148.152519 191.169546 C 148.152519 196.002418 144.277889 199.877048 139.445017 199.877048 Z M 139.445017 199.877048 " transform="matrix(0.093759,0,0,0.093759,0,20.158175)"/>
<path style="fill-rule:nonzero;fill:url(#linear4);stroke-width:11.338583;stroke-linecap:round;stroke-linejoin:round;stroke:rgb(12.941177%,12.941177%,12.941177%);stroke-opacity:1;stroke-miterlimit:4;" d="M 1380.025767 255.093763 C 1346.800592 255.093763 1320.031493 286.27189 1320.031493 325.165816 L 1320.031493 425.156272 C 1320.031493 436.178842 1328.849549 445.154364 1340.029584 445.154364 C 1351.052154 445.154364 1360.027676 436.178842 1360.027676 425.156272 L 1360.027676 375.082311 L 1440.020041 375.082311 L 1440.020041 425.156272 C 1440.020041 436.178842 1448.995562 445.154364 1460.018132 445.154364 C 1471.040702 445.154364 1480.016224 436.178842 1480.016224 425.156272 L 1480.016224 325.165816 C 1480.016224 286.27189 1453.247125 255.093763 1420.02195 255.093763 Z M 1380.025767 295.089946 L 1420.02195 295.089946 C 1431.04452 295.089946 1440.020041 308.474495 1440.020041 325.165816 L 1440.020041 345.163907 L 1360.027676 345.163907 L 1360.027676 325.165816 C 1360.027676 308.474495 1368.845732 295.089946 1380.025767 295.089946 Z M 1380.025767 295.089946 " transform="matrix(0.0248071,0,0,0.0248071,0,0)"/>
</g>
</svg>
